flaticon/arrows/refresh.svg

<svg xmlns="http://www.w3.org/2000/svg" width="32" height="32" viewBox="0 0 24 24">
    <path d="M16.964844 21.117188C16.699219 21.21875 16.421875 21.308594 16.144531 21.386719 15.90625 21.453125 15.765625 21.703125 15.832031 21.945312 15.886719 22.144531 16.070312 22.277344 16.265625 22.277344 16.308594 22.277344 16.347656 22.269531 16.390625 22.257812 16.691406 22.175781 16.996094 22.074219 17.289062 21.964844 17.523438 21.875 17.640625 21.613281 17.550781 21.378906 17.460938 21.144531 17.199219 21.027344 16.964844 21.117188zM19.234375 19.875C19.003906 20.046875 18.761719 20.207031 18.515625 20.359375 18.304688 20.488281 18.234375 20.765625 18.367188 20.980469 18.449219 21.121094 18.601562 21.199219 18.753906 21.199219 18.832031 21.199219 18.914062 21.175781 18.988281 21.132812 19.257812 20.96875 19.523438 20.789062 19.773438 20.605469 19.972656 20.453125 20.015625 20.171875 19.867188 19.96875 19.71875 19.769531 19.4375 19.726562 19.234375 19.875zM14.449219 21.695312C14.164062 21.722656 13.875 21.734375 13.585938 21.734375 13.335938 21.734375 13.132812 21.9375 13.132812 22.1875 13.132812 22.4375 13.335938 22.640625 13.585938 22.640625 13.902344 22.640625 14.21875 22.628906 14.53125 22.597656 14.777344 22.578125 14.960938 22.355469 14.941406 22.105469 14.917969 21.859375 14.695312 21.671875 14.449219 21.695312zM22.976562 15.589844C22.746094 15.496094 22.480469 15.605469 22.382812 15.835938 22.277344 16.105469 22.152344 16.367188 22.019531 16.621094 21.90625 16.84375 21.992188 17.117188 22.210938 17.230469 22.277344 17.265625 22.351562 17.28125 22.421875 17.28125 22.585938 17.28125 22.742188 17.195312 22.824219 17.039062 22.96875 16.761719 23.101562 16.472656 23.222656 16.183594 23.316406 15.949219 23.207031 15.6875 22.976562 15.589844zM23.53125 12.9375C23.289062 12.90625 23.058594 13.085938 23.03125 13.335938 22.996094 13.621094 22.949219 13.910156 22.890625 14.1875 22.839844 14.433594 22.996094 14.671875 23.242188 14.726562 23.273438 14.730469 23.304688 14.734375 23.335938 14.734375 23.542969 14.734375 23.734375 14.589844 23.777344 14.375 23.84375 14.066406 23.894531 13.753906 23.929688 13.441406 23.960938 13.191406 23.78125 12.96875 23.53125 12.9375zM21.085938 18.070312C20.910156 18.300781 20.71875 18.519531 20.523438 18.730469 20.351562 18.910156 20.363281 19.199219 20.542969 19.367188 20.632812 19.449219 20.742188 19.492188 20.855469 19.492188 20.976562 19.492188 21.09375 19.441406 21.183594 19.347656 21.398438 19.121094 21.605469 18.878906 21.800781 18.628906 21.953125 18.433594 21.917969 18.148438 21.722656 17.992188 21.523438 17.839844 21.238281 17.875 21.085938 18.070312zM23.546875 12.226562C23.796875 12.226562 24 12.023438 24 11.773438 24 6.03125 19.328125 1.359375 13.585938 1.359375 8.191406 1.359375 3.746094 5.476562 3.222656 10.734375L.773438 8.285156C.597656 8.105469.308594 8.105469.132812 8.285156-.0429688 8.460938-.0429688 8.746094.132812 8.925781L3.300781 12.09375C3.34375 12.136719 3.394531 12.167969 3.449219 12.191406 3.503906 12.214844 3.5625 12.226562 3.621094 12.226562 3.679688 12.226562 3.742188 12.214844 3.796875 12.191406 3.851562 12.167969 3.902344 12.136719 3.941406 12.09375L7.113281 8.925781C7.289062 8.746094 7.289062 8.460938 7.113281 8.285156 6.9375 8.105469 6.648438 8.105469 6.472656 8.285156L4.15625 10.601562C4.738281 5.910156 8.738281 2.265625 13.585938 2.265625 18.828125 2.265625 23.09375 6.53125 23.09375 11.773438 23.09375 12.023438 23.296875 12.226562 23.546875 12.226562zM23.546875 12.226562"/>
</svg>

<svg xmlns="http://www.w3.org/2000/svg" width="32" height="32" viewBox="0 0 24 24">
    <path d="M16.965 21.117a9.591 9.591 0 0 1-.82.27.454.454 0 0 0 .12.89.463.463 0 0 0 .126-.02c.3-.081.605-.183.898-.292a.453.453 0 1 0-.324-.848zm0 0M19.234 19.875c-.23.172-.472.332-.718.484a.45.45 0 0 0-.149.621.448.448 0 0 0 .621.153c.27-.164.535-.344.785-.528a.454.454 0 1 0-.54-.73zm0 0M14.45 21.695a9.06 9.06 0 0 1-.864.04.453.453 0 0 0 0 .906c.316 0 .633-.012.945-.043a.455.455 0 0 0 .41-.493.457.457 0 0 0-.492-.41zm0 0M22.977 15.59a.459.459 0 0 0-.594.246c-.106.27-.23.531-.363.785a.455.455 0 0 0 .402.66.45.45 0 0 0 .402-.242c.145-.277.278-.566.399-.855a.457.457 0 0 0-.246-.594zm0 0M23.531 12.938a.451.451 0 0 0-.5.398c-.035.285-.082.574-.14.851a.457.457 0 0 0 .351.54.45.45 0 0 0 .535-.352c.067-.309.118-.621.153-.934a.453.453 0 0 0-.399-.504zm0 0M21.086 18.07c-.176.23-.367.45-.563.66a.45.45 0 0 0 .02.637c.09.082.2.125.312.125.122 0 .239-.05.329-.144.214-.227.421-.47.617-.72a.458.458 0 0 0-.078-.636.457.457 0 0 0-.637.078zm0 0M23.547 12.227c.25 0 .453-.204.453-.454C24 6.031 19.328 1.36 13.586 1.36c-5.395 0-9.84 4.118-10.363 9.375L.773 8.285a.448.448 0 0 0-.64 0 .455.455 0 0 0 0 .64L3.3 12.095a.467.467 0 0 0 .32.133.455.455 0 0 0 .32-.133l3.172-3.168a.455.455 0 0 0 0-.64.448.448 0 0 0-.64 0l-2.317 2.316c.582-4.692 4.582-8.336 9.43-8.336 5.242 0 9.508 4.265 9.508 9.507 0 .25.203.454.453.454zm0 0"/>
</svg>
